flaticon/interaction/user-16.svg

<svg xmlns="http://www.w3.org/2000/svg" width="32" height="32" viewBox="0 0 24 24">
    <path d="M 18.621094 13.242188 C 17.0625 13.242188 15.59375 13.894531 14.585938 15.035156 C 14.433594 15.207031 14.453125 15.46875 14.621094 15.621094 C 14.792969 15.773438 15.054688 15.757812 15.207031 15.585938 C 16.054688 14.621094 17.300781 14.070312 18.621094 14.070312 C 21.128906 14.070312 23.171875 16.109375 23.171875 18.621094 C 23.171875 21.128906 21.128906 23.171875 18.621094 23.171875 C 16.554688 23.171875 14.726562 21.777344 14.175781 19.863281 L 16.136719 19.863281 L 16.136719 19.035156 L 12.828125 19.035156 L 12.828125 22.34375 L 13.65625 22.34375 L 13.65625 20.828125 C 14.519531 22.703125 16.460938 24 18.621094 24 C 21.585938 24 24 21.585938 24 18.621094 C 24 15.65625 21.585938 13.242188 18.621094 13.242188 Z M 18.621094 13.242188"/>
    <path d="M 7.359375 8.351562 C 7.363281 8.195312 7.484375 4.507812 11.21875 4.476562 C 13.441406 4.496094 14.488281 5.796875 14.980469 6.886719 C 15.226562 7.429688 15.367188 8.078125 15.421875 8.863281 C 15.472656 9.640625 15.625 10.457031 15.875 11.292969 C 15.941406 11.511719 16.171875 11.636719 16.390625 11.570312 C 16.609375 11.507812 16.734375 11.277344 16.667969 11.058594 C 16.4375 10.28125 16.292969 9.523438 16.246094 8.808594 C 16.1875 7.921875 16.019531 7.179688 15.734375 6.546875 C 15.144531 5.234375 13.886719 3.671875 11.21875 3.648438 C 6.683594 3.6875 6.53125 8.285156 6.53125 8.332031 C 6.480469 10.867188 5.035156 13.328125 4.175781 14.570312 C 3.992188 14.839844 3.933594 15.160156 4.019531 15.457031 C 4.101562 15.746094 4.3125 15.980469 4.597656 16.105469 C 5.390625 16.445312 6.386719 16.546875 6.46875 16.550781 L 8.988281 16.550781 C 8.917969 16.683594 8.824219 16.855469 8.773438 16.886719 L 4.980469 18.515625 C 4.691406 18.660156 4.425781 18.859375 4.1875 19.097656 C 2.09375 17.140625 0.828125 14.375 0.828125 11.378906 C 0.828125 5.5625 5.5625 0.828125 11.378906 0.828125 C 17.199219 0.828125 21.929688 5.5625 21.929688 11.378906 C 21.929688 11.609375 22.117188 11.792969 22.34375 11.792969 C 22.574219 11.792969 22.757812 11.609375 22.757812 11.378906 C 22.757812 5.105469 17.652344 0 11.378906 0 C 5.105469 0 0 5.105469 0 11.378906 C 0 14.628906 1.382812 17.628906 3.664062 19.738281 L 3.636719 19.777344 L 3.929688 20.027344 C 5.054688 20.988281 6.332031 21.714844 7.730469 22.179688 C 7.773438 22.195312 7.820312 22.203125 7.863281 22.203125 C 8.035156 22.203125 8.195312 22.089844 8.253906 21.917969 C 8.273438 21.859375 8.277344 21.800781 8.273438 21.746094 C 8.261719 21.582031 8.15625 21.433594 7.992188 21.375 C 6.816406 20.976562 5.75 20.378906 4.8125 19.636719 C 4.972656 19.484375 5.144531 19.359375 5.328125 19.265625 L 9.121094 17.640625 C 9.429688 17.484375 9.621094 17.132812 9.796875 16.785156 C 9.910156 16.558594 9.894531 16.289062 9.761719 16.074219 C 9.625 15.855469 9.390625 15.722656 9.136719 15.722656 L 6.511719 15.726562 C 6.5 15.726562 5.597656 15.632812 4.925781 15.34375 C 4.863281 15.316406 4.828125 15.28125 4.8125 15.230469 C 4.796875 15.171875 4.8125 15.105469 4.855469 15.042969 C 5.765625 13.722656 7.304688 11.097656 7.359375 8.351562 Z M 7.359375 8.351562"/>
</svg>

<svg xmlns="http://www.w3.org/2000/svg" width="32" height="32" viewBox="0 0 24 24">
    <path d="M18.621 13.242a5.37 5.37 0 0 0-4.035 1.793.415.415 0 1 0 .621.55c.848-.964 2.094-1.515 3.414-1.515 2.508 0 4.55 2.04 4.55 4.551a4.558 4.558 0 0 1-4.55 4.55c-2.066 0-3.894-1.394-4.445-3.308h1.96v-.828h-3.308v3.309h.828v-1.516A5.505 5.505 0 0 0 18.621 24 5.386 5.386 0 0 0 24 18.621a5.386 5.386 0 0 0-5.379-5.379zm0 0"/>
    <path d="M7.36 8.352c.003-.157.124-3.844 3.859-3.875 2.222.02 3.27 1.32 3.761 2.41.247.543.387 1.191.442 1.976.05.778.203 1.594.453 2.43a.414.414 0 0 0 .793-.234 10.362 10.362 0 0 1-.422-2.25c-.058-.887-.226-1.63-.512-2.262-.59-1.313-1.847-2.875-4.515-2.899-4.535.04-4.688 4.637-4.688 4.684-.05 2.535-1.496 4.996-2.355 6.238a1.05 1.05 0 0 0-.156.887c.082.29.293.523.578.648.793.34 1.789.442 1.87.446h2.52c-.07.133-.164.304-.215.336L4.98 18.516c-.289.144-.554.343-.793.582a10.555 10.555 0 0 1-3.359-7.72c0-5.816 4.734-10.55 10.55-10.55 5.821 0 10.552 4.734 10.552 10.55a.414.414 0 0 0 .828 0C22.758 5.106 17.652 0 11.378 0 5.106 0 0 5.105 0 11.379c0 3.25 1.383 6.25 3.664 8.36l-.027.038.293.25a11.334 11.334 0 0 0 3.8 2.153c.043.015.09.023.133.023a.418.418 0 0 0 .39-.285c.02-.059.024-.117.02-.172a.425.425 0 0 0-.28-.371 10.602 10.602 0 0 1-3.18-1.738c.16-.153.332-.278.515-.371l3.793-1.625c.309-.157.5-.508.676-.856a.737.737 0 0 0-.66-1.063l-2.625.005c-.012 0-.914-.094-1.586-.383-.063-.028-.098-.063-.114-.114a.229.229 0 0 1 .043-.187c.91-1.32 2.45-3.945 2.504-6.691zm0 0"/>
</svg>
